X:1
T:Title
%%score { 1 | 2 }
L:1/8
Q:1/4=116
M:3/4
K:Db
V:1 treble nm="Grand Piano"
V:2 bass 
V:1
 [DFA]4 [A,EG]2 | [A,DF]4 [A,DF]2 | [CE]4 [A,CG]2 | [A,EG]2 [A,DF]2 z2 | [A,DF]4 [DFA]2 | %5
w: W.~H.~Lamb *|||||
 [DGB]4 [DB]2 | [CEA]4 [B,E=G]2 | [CEA]4 z2 | [DFA]4 [A,EG]2 | [A,DF]4 [A,DF]2 | [CE]4 [A,CG]2 | %11
w: ||||||
 [A,EG]2 [A,DF]2 z2 | [FA]4 [FA]2 | B4 e2 | d4 [Ec]2 | [Fd]6 |] %16
w: |||||
V:2
 D,4 D,2 | D,4 F,2 | A,4 A,,2 | D,2 D,2 z2 | D,4 D,2 | G,4 G,2 | E,4 E,2 | A,4 z2 | D,4 D,2 | %9
 D,4 F,2 | A,4 A,,2 | D,2 D,2 z2 | [D,D]4 [D,D]2 | [G,DG]4 [G,B,G]2 | [A,F]4[K:bass] [A,,A,]2 | %15
 [D,A,]6 |] %16

